img/icons/start.svg

<svg stroke="#F3F3F3" fill="white" width="15" height="14" viewBox="0 0 15 14" xmlns="http://www.w3.org/2000/svg">
  <path d="M7.74525 10.6055L7.5 10.4674L7.25475 10.6055L3.63071 12.6453L4.57642 8.85073L4.6535 8.54147L4.40569 8.34105L1.28779 5.81937L5.43318 5.48739L5.72674 5.46388L5.84852 5.19573L7.5 1.55927L9.15151 5.19574L9.27329 5.46388L9.56685 5.48739L13.7122 5.81937L10.5943 8.34105L10.3465 8.54147L10.4236 8.85073L11.3693 12.6453L7.74525 10.6055Z" />
</svg>

<svg stroke="#F3F3F3" fill="#fff" width="15" height="14" xmlns="http://www.w3.org/2000/svg"><path d="M7.745 10.605l-.245-.138-.245.138-3.624 2.04.945-3.794.078-.31-.248-.2-3.118-2.522 4.145-.332.294-.023.122-.268L7.5 1.559l1.652 3.637.121.268.294.023 4.145.332-3.118 2.522-.247.2.077.31.945 3.794-3.624-2.04z"/></svg>
